packages/core/src/svgs/tokens/mono/LAMB.svg

<svg width="24" height="24" viewBox="0 0 24 24" fill="none" xmlns="http://www.w3.org/2000/svg">
<path fill-rule="evenodd" clip-rule="evenodd" d="M2.6319 2.00674H5.52462V2.00049C5.58708 2.01298 5.76828 2.13169 5.89948 2.48782L7.60512 6.93623L9.94172 2.2504C9.99173 2.16919 10.148 2.00049 10.3353 2.00049H13.1469C13.2718 2.03173 13.4781 2.20043 13.2718 2.58778C13.0657 2.98139 12.0723 5.09313 11.6036 6.10527L21.4813 2.36911C21.6563 2.31288 22 2.30039 22 2.70024V5.46175C22 5.54922 21.9125 5.74915 21.5688 5.8616C21.2314 5.96591 18.508 6.99807 17.1144 7.52624L17.0392 7.55475L21.8251 9.95391C21.8875 9.9851 22 10.0976 22 10.3475V13.009C21.9875 13.1714 21.85 13.4464 21.3815 13.2526C20.9128 13.059 18.8198 12.0657 17.8327 11.597L21.5688 21.456C21.6439 21.6372 21.7125 21.9934 21.3815 21.9934H18.5887C18.4138 21.9934 18.2512 21.8496 18.1076 21.456L16.402 17.0014L14.059 21.7434C14.0278 21.8246 13.8841 21.9995 13.5905 21.9995H11.0227C10.8289 21.9808 10.4853 21.8371 10.6852 21.4623C10.8727 21.0874 11.8911 18.8882 12.3722 17.8261L2.53818 21.5622C2.36949 21.6372 2.03837 21.6747 2.03837 21.2499C2.01962 20.8249 2.02587 19.2318 2.03837 18.4821C2.03837 18.3884 2.13207 18.176 2.41323 18.0885C2.63604 18.0191 4.48738 17.318 5.94576 16.7658C6.32756 16.6212 6.68242 16.4868 6.97409 16.3766L2.18206 14.0087C2.11334 13.9712 1.98838 13.8463 2.00087 13.6462C2.01962 13.4401 2.02587 11.7033 2.02587 10.8661C2.01962 10.7161 2.12583 10.4787 2.57567 10.6786C2.97976 10.8557 4.70316 11.6754 5.79479 12.1946C5.93524 12.2613 6.06525 12.3231 6.18063 12.378L2.45696 2.49406C2.39448 2.33162 2.34451 2.00674 2.6319 2.00674ZM9.69229 10.379L12.7661 9.24191L13.5533 9.64164L14.7404 12.703L14.3468 13.5028L11.3354 14.6899L10.367 14.19L9.25495 11.3224L9.69229 10.379Z" fill="white"/>
</svg>

<svg xmlns="http://www.w3.org/2000/svg" width="24" height="24" fill="none" viewBox="0 0 24 24">
    <path fill="#fff" fill-rule="evenodd" d="M2.632 2.007h2.893V2c.062.013.243.132.374.488l1.706 4.448L9.942 2.25c.05-.08.206-.25.393-.25h2.812c.125.032.331.2.125.588-.206.393-1.2 2.505-1.668 3.517L21.48 2.37c.175-.056.519-.069.519.331v2.762c0 .087-.087.287-.431.4-.338.104-3.061 1.136-4.455 1.664l-.075.029 4.786 2.399c.063.031.175.144.175.393v2.662c-.012.162-.15.437-.619.244-.468-.194-2.561-1.187-3.548-1.656l3.736 9.859c.075.181.143.537-.187.537h-2.793c-.175 0-.338-.143-.481-.537l-1.706-4.455-2.343 4.742c-.031.082-.175.257-.468.257h-2.568c-.194-.02-.538-.163-.338-.538.188-.375 1.206-2.574 1.687-3.636l-9.834 3.736c-.169.075-.5.113-.5-.312-.018-.425-.012-2.018 0-2.768 0-.094.094-.306.375-.393.223-.07 2.074-.771 3.533-1.323l1.028-.39-4.792-2.367A.39.39 0 0 1 2 13.647c.019-.206.025-1.943.025-2.78-.006-.15.1-.387.55-.187.404.177 2.127.996 3.219 1.516l.386.183-3.724-9.884c-.063-.162-.112-.487.175-.487m7.06 8.372 3.074-1.137.787.4 1.187 3.061-.393.8-3.012 1.187-.968-.5-1.112-2.868z" clip-rule="evenodd"/>
</svg>
